assets/icons/icon_stats.svg

<svg width="30" height="30" viewBox="0 0 30 30" fill="none"
    xmlns="http://www.w3.org/2000/svg">
    <path d="M2.03394 22.3345V27.1974C2.03394 27.4933 2.27431 27.7398 2.57632 27.7398H6.33601C6.63185 27.7398 6.87839 27.4995 6.87839 27.1974V18.6426L4.14799 21.373C3.56863 21.9462 2.82902 22.279 2.03394 22.3345Z" fill="#6366F1"/>
    <path d="M8.75208 18.5809V27.1974C8.75208 27.4933 8.99245 27.7398 9.29446 27.7398H13.0541C13.35 27.7398 13.5965 27.4994 13.5965 27.1974V22.1249C12.7398 22.1064 11.9386 21.7674 11.3346 21.1634L8.75208 18.5809Z" fill="#4F46E5"/>
    <path d="M15.4702 21.5887V27.1975C15.4702 27.4933 15.7106 27.7398 16.0126 27.7398H19.7723C20.0681 27.7398 20.3147 27.4995 20.3147 27.1975V16.8491L16.0064 21.1573C15.84 21.3237 15.6613 21.4655 15.4702 21.5887Z" fill="#818CF8"/>
    <path d="M26.6692 10.4883L22.1884 14.9692V27.1974C22.1884 27.4933 22.4287 27.7398 22.7307 27.7398H26.4904C26.7863 27.7398 27.0328 27.4994 27.0328 27.1974V10.8273C26.9095 10.7226 26.8171 10.6301 26.7493 10.5685L26.6692 10.4883Z" fill="#3730A3"/>
    <path d="M29.7447 2.54987C29.5659 2.35881 29.2948 2.26019 28.9496 2.26019C28.9188 2.26019 28.8818 2.26019 28.851 2.26019C27.1006 2.34032 25.3563 2.42661 23.6059 2.50673C23.3717 2.51906 23.0512 2.53138 22.7985 2.78408C22.7184 2.86421 22.6567 2.95666 22.6074 3.0676C22.3486 3.62848 22.7122 3.99212 22.8848 4.16469L23.3224 4.60846C23.6244 4.91663 23.9326 5.2248 24.2407 5.52681L13.6643 16.1094L8.91231 11.3574C8.62879 11.0739 8.24666 10.9137 7.83987 10.9137C7.43309 10.9137 7.05712 11.0739 6.7736 11.3574L0.443767 17.6811C-0.147922 18.2728 -0.147922 19.2281 0.443767 19.8198L0.727284 20.1033C1.0108 20.3869 1.39293 20.5471 1.79972 20.5471C2.20651 20.5471 2.58247 20.3869 2.86599 20.1033L7.83987 15.1294L12.5919 19.8815C12.8754 20.165 13.2575 20.3252 13.6643 20.3252C14.0711 20.3252 14.4471 20.165 14.7367 19.8815L26.6691 7.94904L28.0189 9.29267C28.1792 9.45292 28.4011 9.6748 28.74 9.6748C28.8818 9.6748 29.0236 9.63782 29.1715 9.5577C29.2701 9.50223 29.3564 9.44059 29.4303 9.36663C29.6954 9.1016 29.7447 8.76262 29.757 8.49759C29.8063 7.36352 29.8618 6.22944 29.9173 5.08921L29.9974 3.38194C30.0159 3.02446 29.9357 2.7471 29.7447 2.54987Z" fill="#6366F1"/>
</svg>

<svg fill="none" xmlns="http://www.w3.org/2000/svg" viewBox="0 0 30 30"><path d="M2.03 22.33v4.87c0 .3.24.54.55.54h3.76c.3 0 .54-.24.54-.54v-8.56l-2.73 2.73a3.3 3.3 0 0 1-2.12.96" fill="#6366F1"/><path d="M8.75 18.58v8.62c0 .3.24.54.54.54h3.76c.3 0 .55-.24.55-.54v-5.08a3.3 3.3 0 0 1-2.27-.96z" fill="#4F46E5"/><path d="M15.47 21.59v5.6c0 .3.24.55.54.55h3.76c.3 0 .54-.24.54-.54V16.85l-4.3 4.3q-.25.26-.54.44" fill="#818CF8"/><path d="m26.67 10.49-4.48 4.48V27.2c0 .3.24.54.54.54h3.76c.3 0 .54-.24.54-.54V10.83l-.28-.26z" fill="#3730A3"/><path d="M29.74 2.55q-.27-.3-.79-.29h-.1l-5.24.25c-.24 0-.56.02-.81.27a1 1 0 0 0-.2.29c-.25.56.11.92.28 1.1l.44.44.92.92L13.66 16.1l-4.75-4.75a1.5 1.5 0 0 0-2.14 0L.44 17.68c-.59.6-.59 1.55 0 2.14l.29.28a1.5 1.5 0 0 0 2.14 0l4.97-4.97 4.75 4.75a1.5 1.5 0 0 0 2.15 0L26.67 7.95l1.35 1.34c.16.16.38.38.72.38a1 1 0 0 0 .43-.11q.15-.09.26-.2c.27-.26.31-.6.33-.86l.16-3.41.08-1.7q.04-.55-.26-.84" fill="#6366F1"/></svg>
